X:395
T: McDonagh's #2
S: "Play 50 Reels" (Armagh Pipers' Club)
Z: B.Black
L: 1/8
M: 4/4
R: reel
K: D
B2 Ad BEED|E2 BE E2 BE|BAFA D3 E|(3FED AD FDFA|
B2 Ad BEED|E2 BE E2 BE|BAGF GABc|1 dBAG FD D2 :|2\
dBAG FDFA||
d2 ef gfed|fB B2 fB B2|d2 ef gfed|ceae ceae|
d2 ef gfed|fB B2 fB B2|af (3gfe fdec|\
(3dcB AG FD D2 :|
